Sources/FrostedUI/Resources/Icons.xcassets/twitterFilledSize12.imageset/twitter-filled-size-12.svg

<svg
  width="12"
  height="12"
  viewBox="0 0 12 12"
  fill="none"
  xmlns="http://www.w3.org/2000/svg"
  data-fui-icon="true"
>
  <path
    d="M11.625 2.56562C11.2113 2.74607 10.7669 2.868 10.2997 2.92311C10.7762 2.64219 11.1419 2.19643 11.3144 1.66582C10.8685 1.92625 10.3744 2.11547 9.84875 2.21692C9.4276 1.77604 8.8281 1.5 8.1642 1.5C6.88985 1.5 5.8563 2.51734 5.8563 3.77268C5.8563 3.9502 5.87715 4.12284 5.91575 4.28964C3.99684 4.19454 2.2969 3.28986 1.15833 1.91552C0.960145 2.25203 0.846185 2.64219 0.846185 3.05771C0.846185 3.84583 1.25395 4.54178 1.87278 4.94901C1.49425 4.93681 1.13851 4.83489 0.82736 4.66468V4.69394C0.82736 5.7947 1.62258 6.713 2.67891 6.92175C2.48468 6.97345 2.28105 7.00075 2.07097 7.00075C1.92234 7.00075 1.77716 6.9871 1.63645 6.96075C1.93026 7.863 2.78246 8.52045 3.79271 8.538C3.00244 9.1476 2.00706 9.51095 0.925955 9.51095C0.73966 9.51095 0.555845 9.5002 0.375 9.47925C1.39664 10.1244 2.60954 10.5 3.91261 10.5C8.15875 10.5 10.48 7.0383 10.48 4.03604C10.48 3.9385 10.4775 3.83998 10.4731 3.74244C10.9239 3.42154 11.3153 3.02211 11.624 2.56709L11.625 2.56562Z"
    fill="currentColor"
  />
</svg>

<svg xmlns="http://www.w3.org/2000/svg" width="12" height="12" fill="none" data-fui-icon="true" viewBox="0 0 12 12"><path fill="currentColor" d="M11.625 2.566c-.414.18-.858.302-1.325.357.476-.28.842-.727 1.014-1.257-.446.26-.94.45-1.465.55A2.32 2.32 0 0 0 8.164 1.5c-1.274 0-2.308 1.017-2.308 2.273q0 .266.06.517a6.6 6.6 0 0 1-4.758-2.374 2.24 2.24 0 0 0-.312 1.142c0 .788.408 1.484 1.027 1.891a2.3 2.3 0 0 1-1.046-.284v.029c0 1.1.796 2.019 1.852 2.228a2.4 2.4 0 0 1-1.043.039 2.305 2.305 0 0 0 2.157 1.577 4.68 4.68 0 0 1-3.418.941A6.6 6.6 0 0 0 3.913 10.5c4.246 0 6.567-3.462 6.567-6.464q0-.146-.007-.294c.45-.32.842-.72 1.151-1.175z"/></svg>
